cookie-law-info/lite/admin/dist/img/logo.svg

<svg width="188" height="30" viewBox="0 0 188 30" fill="none" xmlns="http://www.w3.org/2000/svg">
<path d="M13.2251 2.95435C19.4896 2.95435 24.1722 6.45433 25.6909 12.1816H18.667C17.5913 9.89068 15.5664 8.80887 13.1618 8.80887C9.23859 8.80887 6.51764 11.7361 6.51764 16.4452C6.51764 21.1543 9.23859 24.0815 13.1618 24.0815C15.5664 24.0815 17.5913 22.9361 18.667 20.7088H25.6909C24.1722 26.4361 19.4896 29.9361 13.2251 29.9361C5.44191 29.8724 0 24.3361 0 16.3816C0 8.42705 5.44191 2.95435 13.2251 2.95435Z" fill="#404041"/>
<path d="M38.4731 30.0001C32.3351 30.0001 27.7158 25.8637 27.7158 19.1819C27.7158 12.5001 32.4616 8.36377 38.5996 8.36377C44.7376 8.36377 49.4834 12.5001 49.4834 19.1819C49.4834 25.8637 44.611 30.0001 38.4731 30.0001ZM38.4731 24.4001C40.7511 24.4001 42.9025 22.6819 42.9025 19.1819C42.9025 15.6183 40.8143 13.9637 38.5363 13.9637C36.195 13.9637 34.1702 15.6183 34.1702 19.1819C34.2334 22.6819 36.1318 24.4001 38.4731 24.4001Z" fill="#404041"/>
<path d="M62.2024 30.0001C56.0644 30.0001 51.4451 25.8637 51.4451 19.1819C51.4451 12.5001 56.191 8.36377 62.3289 8.36377C68.4669 8.36377 73.2128 12.5001 73.2128 19.1819C73.2128 25.8637 68.3404 30.0001 62.2024 30.0001ZM62.2024 24.4001C64.4804 24.4001 66.6319 22.6819 66.6319 19.1819C66.6319 15.6183 64.5437 13.9637 62.2657 13.9637C59.9244 13.9637 57.8995 15.6183 57.8995 19.1819C57.8995 22.6819 59.8611 24.4001 62.2024 24.4001Z" fill="#404041"/>
<path d="M75.4907 2.95435H81.8818V17.2088L88.2096 8.6816H96.1193L87.4502 19.1816L96.2459 29.6815H88.3361L81.945 20.8361V29.6815H75.554V2.95435H75.4907Z" fill="#404041"/>
<path d="M97.6379 3.01805C97.6379 1.04533 99.1566 -0.481934 101.435 -0.481934C103.713 -0.481934 105.231 1.04533 105.231 3.01805C105.231 4.92714 103.713 6.4544 101.435 6.4544C99.1566 6.4544 97.6379 4.92714 97.6379 3.01805ZM98.2707 8.61803H104.662V29.618H98.2707V8.61803Z" fill="#404041"/>
<path d="M117.571 30.0001C111.433 30.0001 107.003 25.8637 107.003 19.1819C107.003 12.5001 111.369 8.36377 117.571 8.36377C123.645 8.36377 128.011 12.4365 128.011 18.8637C128.011 19.4365 127.948 20.1365 127.885 20.7728H113.394C113.647 23.5092 115.293 24.7819 117.381 24.7819C119.153 24.7819 120.165 23.891 120.734 22.7455H127.569C126.493 26.8182 122.823 30.0001 117.571 30.0001ZM113.458 17.1456H121.494C121.494 14.8547 119.722 13.5183 117.571 13.5183C115.419 13.5183 113.837 14.791 113.458 17.1456Z" fill="#404041"/>
<path d="M157.562 30.0001C151.424 30.0001 146.995 25.8637 146.995 19.1819C146.995 12.5001 151.361 8.36377 157.562 8.36377C163.637 8.36377 168.003 12.4365 168.003 18.8637C168.003 19.4365 167.94 20.1365 167.877 20.7728H153.386C153.639 23.5092 155.284 24.7819 157.373 24.7819C159.144 24.7819 160.157 23.891 160.726 22.7455H167.56C166.485 26.8182 162.751 30.0001 157.562 30.0001ZM153.386 17.1456H161.422C161.422 14.8547 159.651 13.5183 157.499 13.5183C155.411 13.5183 153.766 14.791 153.386 17.1456Z" fill="#404041"/>
<path d="M179.583 30.0001C174.015 30.0001 170.281 26.8819 169.965 22.8092H176.293C176.419 24.2728 177.748 25.2273 179.52 25.2273C181.165 25.2273 182.051 24.4637 182.051 23.5092C182.051 20.1365 170.661 22.5546 170.661 14.8547C170.661 11.291 173.698 8.36377 179.14 8.36377C184.519 8.36377 187.556 11.3547 187.936 15.491H181.988C181.798 14.091 180.722 13.1365 178.887 13.1365C177.368 13.1365 176.546 13.7092 176.546 14.7274C176.546 18.1001 187.872 15.6819 187.999 23.5728C188.062 27.2001 184.835 30.0001 179.583 30.0001Z" fill="#404041"/>
<path d="M134.656 9H128.011L134.086 20.3272H140.73L134.656 9Z" fill="#0056A7"/>
<path d="M133.96 20.0091L134.149 20.3273H140.794L136.427 12.3728L133.96 20.0091Z" fill="#2E3191"/>
<path d="M146.109 -0.54541L134.149 20.3272H140.794L152.753 -0.54541H146.109Z" fill="#0056A7"/>
<path d="M134.149 23.4453H140.604V29.9998H134.149V23.4453Z" fill="#0056A7"/>
</svg>

<svg width="188" height="30" fill="none" xmlns="http://www.w3.org/2000/svg"><path d="M13.225 2.954c6.265 0 10.947 3.5 12.466 9.228h-7.024c-1.076-2.291-3.1-3.373-5.505-3.373-3.923 0-6.644 2.927-6.644 7.636 0 4.71 2.72 7.636 6.644 7.636 2.404 0 4.43-1.145 5.505-3.372h7.024c-1.519 5.727-6.201 9.227-12.466 9.227C5.442 29.872 0 24.336 0 16.382 0 8.427 5.442 2.954 13.225 2.954zM38.473 30c-6.138 0-10.757-4.136-10.757-10.818 0-6.682 4.746-10.818 10.884-10.818S49.483 12.5 49.483 19.182c0 6.682-4.872 10.818-11.01 10.818zm0-5.6c2.278 0 4.43-1.718 4.43-5.218 0-3.564-2.089-5.218-4.367-5.218-2.341 0-4.366 1.654-4.366 5.218.063 3.5 1.962 5.218 4.303 5.218zM62.202 30c-6.138 0-10.757-4.136-10.757-10.818 0-6.682 4.746-10.818 10.884-10.818S73.213 12.5 73.213 19.182C73.213 25.864 68.34 30 62.203 30zm0-5.6c2.278 0 4.43-1.718 4.43-5.218 0-3.564-2.088-5.218-4.366-5.218-2.342 0-4.366 1.654-4.366 5.218 0 3.5 1.961 5.218 4.302 5.218zM75.49 2.954h6.392V17.21l6.328-8.527h7.91l-8.67 10.5 8.796 10.5h-7.91l-6.391-8.846v8.846h-6.391V2.953h-.063zM97.638 3.018c0-1.973 1.519-3.5 3.797-3.5 2.278 0 3.796 1.527 3.796 3.5 0 1.91-1.518 3.436-3.796 3.436-2.278 0-3.797-1.527-3.797-3.436zm.633 5.6h6.391v21h-6.391v-21zM117.571 30c-6.138 0-10.568-4.136-10.568-10.818 0-6.682 4.366-10.818 10.568-10.818 6.074 0 10.44 4.072 10.44 10.5 0 .572-.063 1.273-.126 1.909h-14.491c.253 2.736 1.899 4.009 3.987 4.009 1.772 0 2.784-.891 3.353-2.037h6.835c-1.076 4.073-4.746 7.255-9.998 7.255zm-4.113-12.854h8.036c0-2.291-1.772-3.628-3.923-3.628-2.152 0-3.734 1.273-4.113 3.628zM157.562 30c-6.138 0-10.567-4.136-10.567-10.818 0-6.682 4.366-10.818 10.567-10.818 6.075 0 10.441 4.072 10.441 10.5 0 .572-.063 1.273-.126 1.909h-14.491c.253 2.736 1.898 4.009 3.987 4.009 1.771 0 2.784-.891 3.353-2.037h6.834c-1.075 4.073-4.809 7.255-9.998 7.255zm-4.176-12.854h8.036c0-2.291-1.771-3.628-3.923-3.628-2.088 0-3.733 1.273-4.113 3.628zM179.583 30c-5.568 0-9.302-3.118-9.618-7.19h6.328c.126 1.463 1.455 2.417 3.227 2.417 1.645 0 2.531-.763 2.531-1.718 0-3.372-11.39-.954-11.39-8.654 0-3.564 3.037-6.491 8.479-6.491 5.379 0 8.416 2.99 8.796 7.127h-5.948c-.19-1.4-1.266-2.354-3.101-2.354-1.519 0-2.341.572-2.341 1.59 0 3.373 11.326.955 11.453 8.846.063 3.627-3.164 6.427-8.416 6.427z" fill="#404041"/><path d="M134.656 9h-6.645l6.075 11.327h6.644L134.656 9z" fill="#0056A7"/><path d="m133.96 20.01.189.317h6.645l-4.367-7.954-2.467 7.636z" fill="#2E3191"/><path d="m146.109-.545-11.96 20.872h6.645L152.753-.545h-6.644zM134.149 23.445h6.455V30h-6.455v-6.555z" fill="#0056A7"/></svg>
